src/assets/duotone/Building3.svg

<svg width="24" height="24" viewBox="0 0 24 24"  xmlns="http://www.w3.org/2000/svg">
<path opacity="0.4" d="M15.01 14.7499V21.9898L3.01001 22.0099V14.7499L3 13.2499V7.06986C3 6.39986 3.34001 5.77983 3.89001 5.40983L7.89001 2.73984C8.56001 2.28984 9.43999 2.28984 10.11 2.73984L14.11 5.40983C14.67 5.77983 15 6.39986 15 7.06986V13.2499L15.01 14.7499Z" />
<path d="M22 21.2501H20.73V18.2501C21.68 17.9401 22.37 17.0501 22.37 16.0001V14.0001C22.37 12.6901 21.3 11.6201 19.99 11.6201C18.68 11.6201 17.61 12.6901 17.61 14.0001V16.0001C17.61 17.0401 18.29 17.9201 19.22 18.2401V21.2501H2C1.59 21.2501 1.25 21.5901 1.25 22.0001C1.25 22.4101 1.59 22.7501 2 22.7501H19.93C19.95 22.7501 19.96 22.7601 19.98 22.7601C20 22.7601 20.01 22.7501 20.03 22.7501H22C22.41 22.7501 22.75 22.4101 22.75 22.0001C22.75 21.5901 22.41 21.2501 22 21.2501Z" />
<path d="M15.01 14.75H3.01001L3 13.25H15L15.01 14.75Z" />
<path d="M9 22.75C8.59 22.75 8.25 22.41 8.25 22V18.25C8.25 17.84 8.59 17.5 9 17.5C9.41 17.5 9.75 17.84 9.75 18.25V22C9.75 22.41 9.41 22.75 9 22.75Z" />
<path d="M9 10.75C9.9665 10.75 10.75 9.9665 10.75 9C10.75 8.0335 9.9665 7.25 9 7.25C8.0335 7.25 7.25 8.0335 7.25 9C7.25 9.9665 8.0335 10.75 9 10.75Z" />
</svg>

<?xml version="1.0" encoding="UTF-8"?>
<svg width="24" height="24" viewBox="0 0 24 24" xmlns="http://www.w3.org/2000/svg">
 <path d="m15.01 14.75v7.2399l-12 0.0201v-7.26l-0.01001-1.5v-6.18c0-0.67 0.34001-1.29 0.89001-1.66l4-2.67c0.67-0.45 1.55-0.45 2.22 0l4 2.67c0.56 0.37 0.89 0.99003 0.89 1.66v6.18l0.01 1.5z" opacity=".4"/>
 <path d="m22 21.25h-1.27v-3c0.95-0.31 1.64-1.2 1.64-2.25v-2c0-1.31-1.07-2.38-2.38-2.38s-2.38 1.07-2.38 2.38v2c0 1.04 0.68 1.92 1.61 2.24v3.01h-17.22c-0.41 0-0.75 0.34-0.75 0.75s0.34 0.75 0.75 0.75h17.93c0.02 0 0.03 0.01 0.05 0.01s0.03-0.01 0.05-0.01h1.97c0.41 0 0.75-0.34 0.75-0.75s-0.34-0.75-0.75-0.75z"/>
 <path d="m15.01 14.75h-12l-0.01001-1.5h12l0.01 1.5z"/>
 <path d="m9 22.75c-0.41 0-0.75-0.34-0.75-0.75v-3.75c0-0.41 0.34-0.75 0.75-0.75s0.75 0.34 0.75 0.75v3.75c0 0.41-0.34 0.75-0.75 0.75z"/>
 <path d="m9 10.75c0.9665 0 1.75-0.7835 1.75-1.75s-0.7835-1.75-1.75-1.75-1.75 0.7835-1.75 1.75 0.7835 1.75 1.75 1.75z"/>
</svg>
